img/youtube.svg

<svg width="25" height="25" viewBox="0 0 25 25" fill="none" xmlns="http://www.w3.org/2000/svg">
<path d="M22.6811 7.74764C22.5616 7.30367 22.3276 6.89887 22.0025 6.57376C21.6774 6.24865 21.2726 6.01464 20.8286 5.89514C19.1936 5.45264 12.6236 5.45264 12.6236 5.45264C12.6236 5.45264 6.05361 5.45264 4.41861 5.89514C3.97464 6.01464 3.56985 6.24865 3.24474 6.57376C2.91963 6.89887 2.68561 7.30367 2.56611 7.74764C2.26082 9.41509 2.11267 11.1075 2.12361 12.8026C2.11267 14.4978 2.26082 16.1902 2.56611 17.8576C2.68561 18.3016 2.91963 18.7064 3.24474 19.0315C3.56985 19.3566 3.97464 19.5906 4.41861 19.7101C6.05361 20.1526 12.6236 20.1526 12.6236 20.1526C12.6236 20.1526 19.1936 20.1526 20.8286 19.7101C21.2726 19.5906 21.6774 19.3566 22.0025 19.0315C22.3276 18.7064 22.5616 18.3016 22.6811 17.8576C22.9864 16.1902 23.1346 14.4978 23.1236 12.8026C23.1346 11.1075 22.9864 9.41509 22.6811 7.74764ZM10.5236 15.9526V9.65264L15.9761 12.8026L10.5236 15.9526Z" fill="white"/>
</svg>

<svg width="25" height="25" fill="none" xmlns="http://www.w3.org/2000/svg">
  <path d="M22.681 7.748a2.625 2.625 0 0 0-1.852-1.853c-1.635-.442-8.205-.442-8.205-.442s-6.57 0-8.205.442a2.625 2.625 0 0 0-1.853 1.853 27.097 27.097 0 0 0-.442 5.055 27.122 27.122 0 0 0 .442 5.055A2.625 2.625 0 0 0 4.42 19.71c1.635.443 8.205.443 8.205.443s6.57 0 8.205-.443a2.625 2.625 0 0 0 1.852-1.852 27.09 27.09 0 0 0 .443-5.055 27.091 27.091 0 0 0-.443-5.055Zm-12.157 8.205v-6.3l5.452 3.15-5.452 3.15Z" fill="#fff"/>
</svg>
